X:61
T: Den Em Steffen, S. 29
N: L0021a
O: Luxemburg
S: Die Luxemburger Volkslieder lterer Zeit, Luxemburg 1904 posth.]
R: ??, Liebeslied]
M: 2/4
L: 1/16
K: F
CC | F2FFA2F2 | c2c2c2
f2 | c2AAB2GG | A2F2F2
AA | GGGGG2BB | AFFFF2
f2 | c2AAB2GG | A2G2F2

